X:165
M:2/4
L:1/8
K:A
|:aecA|aecA|aecA|B/B/B B2|ABcd|eaga|ecdB|A/A/A A2:|
|:AEAE|CEAc|BAGF|E/E/E E2|AEAE|CEDF|EDCB,|A,/A,/A, A,2:|

